src/assets/icons/edit-icon.svg

<svg width="29" height="28" viewBox="0 0 29 28" fill="none" xmlns="http://www.w3.org/2000/svg">
<g clip-path="url(#clip0_18_3816)">
<path d="M16.9033 10.5233L17.9767 11.5967L7.40667 22.1667H6.33333V21.0933L16.9033 10.5233ZM21.1033 3.5C20.8117 3.5 20.5083 3.61667 20.2867 3.83833L18.1517 5.97333L22.5267 10.3483L24.6617 8.21333C25.1167 7.75833 25.1167 7.02333 24.6617 6.56833L21.9317 3.83833C21.6983 3.605 21.4067 3.5 21.1033 3.5ZM16.9033 7.22167L4 20.125V24.5H8.375L21.2783 11.5967L16.9033 7.22167Z" fill="#51D289"/>
</g>
<defs>
<clipPath id="clip0_18_3816">
<rect width="28" height="28" fill="white" transform="translate(0.5)"/>
</clipPath>
</defs>
</svg>

<svg width="29" height="28" fill="none" xmlns="http://www.w3.org/2000/svg"><g clip-path="url(#prefix__clip0_18_3816)"><path d="M16.903 10.523l1.074 1.074-10.57 10.57H6.333v-1.074l10.57-10.57zm4.2-7.023c-.291 0-.595.117-.816.338l-2.135 2.135 4.375 4.375 2.135-2.135a1.162 1.162 0 000-1.645l-2.73-2.73a1.146 1.146 0 00-.829-.338zm-4.2 3.722L4 20.125V24.5h4.375l12.903-12.903-4.375-4.375z" fill="#51D289"/></g><defs><clipPath id="prefix__clip0_18_3816"><path fill="#fff" transform="translate(.5)" d="M0 0h28v28H0z"/></clipPath></defs></svg>
